images_sukapura_svg/cmd/32/distributecolumns.svg

<svg viewBox="0 0 32 32" xmlns="http://www.w3.org/2000/svg" xmlns:xlink="http://www.w3.org/1999/xlink"><linearGradient id="a" gradientTransform="matrix(0 1 -1 0 33.000954 8.010688)" gradientUnits="userSpaceOnUse" x1="22.009514" x2="10.009515" y1="4.000021" y2="4.000021"><stop offset="0" stop-color="#0040dd"/><stop offset="1" stop-color="#0a84ff"/></linearGradient><path d="m31.000954 24.034124c.0038-.269959-.10191-.529946-.292969-.720704l-5-5c-.629416-.629786-1.706022-.183358-1.705078.707032v2.990234l-4.002907-.010686c-.553998-.0015-1 .446-1 1v2c0 .554.446002.998521 1 1l4.002907.01069v3.009766c-.000943.890389 1.075662 1.336817 1.705078.707031l5-5c.18435-.184063.289481-.432875.292969-.693359z" fill="url(#a)"/><path d="m10.952061 4v24h6v-24z" fill="#fff"/><path d="m11 3v1h5v4 1 4 1 4 1 4 1 4h-5v1h6v-1-4-1-4-1-4-1-4-6z" fill="#69696e"/><path d="m3 4v24h7v-24z" fill="#fff"/><g fill="#808080"><path d="m9 9h1v20h-1z"/><path d="m4 3c-.554 0-1 .446-1 1v24c0 .554.446 1 1 1h5c.554 0 1-.446 1-1v-24c0-.554-.446-1-1-1zm0 1h5v4h-5zm0 5h5v4h-5zm0 5h5v4h-5zm0 5h5v4h-5zm0 5h5v4h-5z" fill="#69696e"/></g><g fill="#bababa"><path d="m11 8v1h5v-1zm0 5v1h5v-1zm0 5v1h5v-1zm0 5v1h5v-1z"/><path d="m4 8v1h5v-1zm0 5v1h5v-1zm0 5v1h5v-1zm0 5v1h5v-1z"/><path d="m4 8v1h5v-1zm0 5v1h5v-1zm0 5v1h5v-1zm0 5v1h5v-1z"/></g></svg>

<?xml version="1.0" encoding="UTF-8" standalone="no"?>
<svg
   xmlns:dc="http://purl.org/dc/elements/1.1/"
   xmlns:cc="http://creativecommons.org/ns#"
   xmlns:rdf="http://www.w3.org/1999/02/22-rdf-syntax-ns#"
   xmlns:svg="http://www.w3.org/2000/svg"
   xmlns="http://www.w3.org/2000/svg"
   xmlns:xlink="http://www.w3.org/1999/xlink"
   xmlns:sodipodi="http://sodipodi.sourceforge.net/DTD/sodipodi-0.dtd"
   xmlns:inkscape="http://www.inkscape.org/namespaces/inkscape"
   viewBox="0 0 32 32"
   version="1.1"
   id="svg16"
   sodipodi:docname="distributecolumns.svg"
   inkscape:version="0.92.3 (unknown)">
  <metadata
     id="metadata22">
    <rdf:RDF>
      <cc:Work
         rdf:about="">
        <dc:format>image/svg+xml</dc:format>
        <dc:type
           rdf:resource="http://purl.org/dc/dcmitype/StillImage" />
        <dc:title></dc:title>
      </cc:Work>
    </rdf:RDF>
  </metadata>
  <defs
     id="defs20">
    <linearGradient
       gradientTransform="translate(75,-7)"
       id="a-367"
       gradientUnits="userSpaceOnUse"
       x1="14"
       x2="13.79661"
       y1="22"
       y2="2.1355929">
      <stop
         offset="0"
         stop-color="#0040dd"
         id="stop2206" />
      <stop
         offset="1"
         stop-color="#0a84ff"
         id="stop2208" />
    </linearGradient>
    <linearGradient
       inkscape:collect="always"
       xlink:href="#a-367"
       id="linearGradient890"
       x1="22.009514"
       y1="4.000021"
       x2="10.009515"
       y2="4.000021"
       gradientUnits="userSpaceOnUse"
       gradientTransform="rotate(90,12.495133,20.505821)" />
  </defs>
  <sodipodi:namedview
     pagecolor="#ffffff"
     bordercolor="#666666"
     borderopacity="1"
     objecttolerance="10"
     gridtolerance="10"
     guidetolerance="10"
     inkscape:pageopacity="0"
     inkscape:pageshadow="2"
     inkscape:window-width="1366"
     inkscape:window-height="706"
     id="namedview18"
     showgrid="true"
     inkscape:zoom="5.2149125"
     inkscape:cx="17.247924"
     inkscape:cy="1.4782417"
     inkscape:window-x="0"
     inkscape:window-y="0"
     inkscape:window-maximized="1"
     inkscape:current-layer="g884"
     inkscape:snap-smooth-nodes="true">
    <inkscape:grid
       type="xygrid"
       id="grid829"
       spacingx="0.5"
       spacingy="0.5"
       empspacing="2" />
  </sodipodi:namedview>
  <g
     id="g884">
    <path
       inkscape:connector-curvature="0"
       style="fill:url(#linearGradient890);fill-opacity:1;stroke:none;stroke-width:1.99996603;stroke-linecap:round;stroke-linejoin:round"
       d="m 31.000954,24.034124 c 0.0038,-0.269959 -0.10191,-0.529946 -0.292969,-0.720704 l -5,-5 c -0.629416,-0.629786 -1.706022,-0.183358 -1.705078,0.707032 v 2.990234 L 20,22 c -0.553998,-0.0015 -1,0.446 -1,1 v 2 c 0,0.554 0.446002,0.998521 1,1 l 4.002907,0.01069 v 3.009766 c -9.43e-4,0.890389 1.075662,1.336817 1.705078,0.707031 l 5,-5 c 0.18435,-0.184063 0.289481,-0.432875 0.292969,-0.693359 z"
       id="path14"
       sodipodi:nodetypes="cccccssssccccc" />
    <path
       id="path2-7"
       d="m 10.952061,4 v 24 h 6 V 4 Z"
       style="fill:#ffffff"
       inkscape:connector-curvature="0" />
    <path
       style="fill:#69696e;fill-opacity:1"
       d="M 11 3 L 11 4 L 16 4 L 16 8 L 16 9 L 16 13 L 16 14 L 16 18 L 16 19 L 16 23 L 16 24 L 16 28 L 11 28 L 11 29 L 17 29 L 17 28 L 17 24 L 17 23 L 17 19 L 17 18 L 17 14 L 17 13 L 17 9 L 17 3 L 11 3 z "
       id="path4-5" />
    <path
       id="path10"
       d="m 3,4 v 24 h 7 V 4 Z"
       style="fill:#ffffff"
       inkscape:connector-curvature="0" />
    <g
       id="g18"
       style="fill:#808080">
      <path
         id="path14-3"
         d="m 9,9 h 1 V 29 H 9 Z"
         inkscape:connector-curvature="0" />
      <path
         d="M 4 3 C 3.446 3 3 3.446 3 4 L 3 28 C 3 28.554 3.446 29 4 29 L 9 29 C 9.554 29 10 28.554 10 28 L 10 4 C 10 3.446 9.554 3 9 3 L 4 3 z M 4 4 L 9 4 L 9 8 L 4 8 L 4 4 z M 4 9 L 9 9 L 9 13 L 4 13 L 4 9 z M 4 14 L 9 14 L 9 18 L 4 18 L 4 14 z M 4 19 L 9 19 L 9 23 L 4 23 L 4 19 z M 4 24 L 9 24 L 9 28 L 4 28 L 4 24 z "
         id="path16"
         style="fill:#69696e;fill-opacity:1" />
    </g>
    <path
       inkscape:connector-curvature="0"
       style="fill:#bababa;fill-opacity:1"
       d="m 11,8 v 1 h 5 V 8 Z m 0,5 v 1 h 5 v -1 z m 0,5 v 1 h 5 v -1 z m 0,5 v 1 h 5 v -1 z"
       id="rect834-5" />
    <path
       id="path913"
       d="M 4,8 V 9 H 9 V 8 Z m 0,5 v 1 h 5 v -1 z m 0,5 v 1 h 5 v -1 z m 0,5 v 1 h 5 v -1 z"
       style="fill:#bababa;fill-opacity:1"
       inkscape:connector-curvature="0" />
    <path
       inkscape:connector-curvature="0"
       style="fill:#bababa;fill-opacity:1"
       d="M 4,8 V 9 H 9 V 8 Z m 0,5 v 1 h 5 v -1 z m 0,5 v 1 h 5 v -1 z m 0,5 v 1 h 5 v -1 z"
       id="path915" />
  </g>
</svg>
